public/Logo plain background.svg

<svg width="130" height="24" viewBox="0 0 130 24" fill="none" xmlns="http://www.w3.org/2000/svg">
<g clip-path="url(#clip0_508_2249)">
<mask id="mask0_508_2249" style="mask-type:luminance" maskUnits="userSpaceOnUse" x="2" y="0" width="24" height="24">
<path d="M2 0H26V24H2V0Z" fill="white"/>
<path fill-rule="evenodd" clip-rule="evenodd" d="M17.9508 3.7394C15.9569 4.72155 14.9231 6.10248 14.9231 7.85171C14.9231 9.53171 15.8803 10.668 17.6923 11.2034V12.9231C17.6923 13.0455 17.741 13.1629 17.8275 13.2494C17.9141 13.336 18.0315 13.3846 18.1539 13.3846C18.2763 13.3846 18.3937 13.336 18.4802 13.2494C18.5668 13.1629 18.6154 13.0455 18.6154 12.9231V4.15386C18.6154 4.0755 18.5955 3.99844 18.5574 3.92992C18.5194 3.8614 18.4646 3.8037 18.3981 3.76223C18.3316 3.72077 18.2556 3.69692 18.1774 3.69292C18.0991 3.68893 18.0212 3.70492 17.9508 3.7394ZM15.8462 7.85171C15.8462 6.68125 16.4462 5.71571 17.6923 4.93663V10.2351C16.4332 9.79479 15.8462 9.01571 15.8462 7.85171Z" fill="black"/>
<path fill-rule="evenodd" clip-rule="evenodd" d="M16.7693 14.3077V18.9231C16.7693 19.2903 16.9152 19.6425 17.1748 19.9022C17.4345 20.1618 17.7867 20.3077 18.1539 20.3077C18.5211 20.3077 18.8733 20.1618 19.133 19.9022C19.3926 19.6425 19.5385 19.2903 19.5385 18.9231V14.3077C19.5385 13.9405 19.3926 13.5883 19.133 13.3286C18.8733 13.069 18.5211 12.9231 18.1539 12.9231C17.7867 12.9231 17.4345 13.069 17.1748 13.3286C16.9152 13.5883 16.7693 13.9405 16.7693 14.3077ZM18.1539 19.3846C18.0315 19.3846 17.9141 19.336 17.8275 19.2495C17.741 19.1629 17.6924 19.0455 17.6924 18.9231V14.3077C17.6924 14.1853 17.741 14.0679 17.8275 13.9814C17.9141 13.8948 18.0315 13.8462 18.1539 13.8462C18.2763 13.8462 18.3937 13.8948 18.4803 13.9814C18.5668 14.0679 18.6154 14.1853 18.6154 14.3077V18.9231C18.6154 19.0455 18.5668 19.1629 18.4803 19.2495C18.3937 19.336 18.2763 19.3846 18.1539 19.3846Z" fill="black"/>
<path d="M8.95268 5.05385C8.9588 4.93144 9.0133 4.81648 9.10418 4.73425C9.19506 4.65202 9.31489 4.60926 9.4373 4.61538C9.5597 4.6215 9.67467 4.676 9.75689 4.76688C9.83912 4.85777 9.88188 4.97759 9.87576 5.1C9.79822 6.64338 9.87853 7.69385 10.0945 8.21446C10.2635 8.62246 10.5967 8.79969 11.2041 8.76554C11.3244 8.76158 11.4415 8.80479 11.5304 8.88597C11.6194 8.96715 11.673 9.07985 11.68 9.20005C11.687 9.32024 11.6467 9.43841 11.5678 9.52934C11.4889 9.62027 11.3776 9.67676 11.2576 9.68677C10.281 9.74215 9.57207 9.36461 9.2416 8.56892C8.95822 7.88585 8.8696 6.72646 8.95268 5.05385Z" fill="black"/>
<path d="M13.5079 5.05389C13.5072 4.99178 13.494 4.93045 13.469 4.87358C13.4441 4.81671 13.4079 4.76546 13.3626 4.72291C13.3174 4.68036 13.264 4.64738 13.2057 4.62594C13.1474 4.60451 13.0854 4.59507 13.0233 4.59817C12.9613 4.60128 12.9005 4.61688 12.8447 4.64403C12.7888 4.67118 12.739 4.70933 12.6982 4.75619C12.6575 4.80305 12.6266 4.85766 12.6074 4.91675C12.5883 4.97583 12.5812 5.03817 12.5867 5.10004C12.6633 6.64342 12.583 7.69389 12.367 8.2145C12.1981 8.6225 11.8649 8.79973 11.2575 8.76558C11.1372 8.76162 11.02 8.80483 10.9311 8.88601C10.8422 8.96719 10.7885 9.07989 10.7815 9.20009C10.7746 9.32029 10.8148 9.43845 10.8937 9.52938C10.9726 9.62031 11.084 9.67681 11.2039 9.68681C12.1806 9.74219 12.8895 9.36466 13.2199 8.56896C13.5033 7.88589 13.5919 6.7265 13.5079 5.05389Z" fill="black"/>
<path d="M10.7693 5.07696C10.7693 4.95455 10.8179 4.83715 10.9045 4.7506C10.991 4.66404 11.1084 4.61542 11.2308 4.61542C11.3532 4.61542 11.4706 4.66404 11.5572 4.7506C11.6437 4.83715 11.6924 4.95455 11.6924 5.07696V13.3846C11.6924 13.5071 11.6437 13.6245 11.5572 13.711C11.4706 13.7976 11.3532 13.8462 11.2308 13.8462C11.1084 13.8462 10.991 13.7976 10.9045 13.711C10.8179 13.6245 10.7693 13.5071 10.7693 13.3846V5.07696Z" fill="black"/>
<path fill-rule="evenodd" clip-rule="evenodd" d="M9.84619 14.3077V18.9231C9.84619 19.2903 9.99207 19.6425 10.2517 19.9022C10.5114 20.1618 10.8636 20.3077 11.2308 20.3077C11.598 20.3077 11.9502 20.1618 12.2099 19.9022C12.4695 19.6425 12.6154 19.2903 12.6154 18.9231V14.3077C12.6154 13.9405 12.4695 13.5883 12.2099 13.3286C11.9502 13.069 11.598 12.9231 11.2308 12.9231C10.8636 12.9231 10.5114 13.069 10.2517 13.3286C9.99207 13.5883 9.84619 13.9405 9.84619 14.3077ZM11.2308 19.3846C11.1084 19.3846 10.991 19.336 10.9044 19.2495C10.8179 19.1629 10.7693 19.0455 10.7693 18.9231V14.3077C10.7693 14.1853 10.8179 14.0679 10.9044 13.9814C10.991 13.8948 11.1084 13.8462 11.2308 13.8462C11.3532 13.8462 11.4706 13.8948 11.5572 13.9814C11.6437 14.0679 11.6923 14.1853 11.6923 14.3077V18.9231C11.6923 19.0455 11.6437 19.1629 11.5572 19.2495C11.4706 19.336 11.3532 19.3846 11.2308 19.3846Z" fill="black"/>
</mask>
<g mask="url(#mask0_508_2249)">
<path d="M14 24C20.6274 24 26 18.6274 26 12C26 5.37258 20.6274 0 14 0C7.37258 0 2 5.37258 2 12C2 18.6274 7.37258 24 14 24Z" fill="#3F6A11"/>
</g>
</g>
<path d="M31.38 5.72H41.42V8.36H34.52V11.66H40.5V14.1H34.52V20H31.38V5.72ZM52.6355 20H49.9355V18.56H49.8755C49.5155 19.16 49.0488 19.5933 48.4755 19.86C47.9021 20.1267 47.3155 20.26 46.7155 20.26C45.9555 20.26 45.3288 20.16 44.8355 19.96C44.3555 19.76 43.9755 19.48 43.6955 19.12C43.4155 18.7467 43.2155 18.3 43.0955 17.78C42.9888 17.2467 42.9355 16.66 42.9355 16.02V9.66H45.7755V15.5C45.7755 16.3533 45.9088 16.9933 46.1755 17.42C46.4421 17.8333 46.9155 18.04 47.5955 18.04C48.3688 18.04 48.9288 17.8133 49.2755 17.36C49.6221 16.8933 49.7955 16.1333 49.7955 15.08V9.66H52.6355V20ZM62.1309 14.8C62.1309 14.3733 62.0909 13.9667 62.0109 13.58C61.9309 13.18 61.7909 12.8333 61.5909 12.54C61.4043 12.2333 61.1576 11.9867 60.8509 11.8C60.5443 11.6133 60.1576 11.52 59.6909 11.52C59.2243 11.52 58.8309 11.6133 58.5109 11.8C58.1909 11.9867 57.9309 12.2333 57.7309 12.54C57.5443 12.8467 57.4043 13.2 57.3109 13.6C57.2309 13.9867 57.1909 14.3933 57.1909 14.82C57.1909 15.22 57.2376 15.62 57.3309 16.02C57.4243 16.42 57.5709 16.78 57.7709 17.1C57.9843 17.4067 58.2443 17.66 58.5509 17.86C58.8709 18.0467 59.2509 18.14 59.6909 18.14C60.1576 18.14 60.5443 18.0467 60.8509 17.86C61.1709 17.6733 61.4243 17.4267 61.6109 17.12C61.7976 16.8 61.9309 16.44 62.0109 16.04C62.0909 15.64 62.1309 15.2267 62.1309 14.8ZM62.1709 18.68H62.1309C61.7976 19.24 61.3576 19.6467 60.8109 19.9C60.2776 20.14 59.6709 20.26 58.9909 20.26C58.2176 20.26 57.5376 20.1133 56.9509 19.82C56.3643 19.5133 55.8776 19.1067 55.4909 18.6C55.1176 18.08 54.8309 17.4867 54.6309 16.82C54.4443 16.1533 54.3509 15.46 54.3509 14.74C54.3509 14.0467 54.4443 13.38 54.6309 12.74C54.8309 12.0867 55.1176 11.5133 55.4909 11.02C55.8776 10.5267 56.3576 10.1333 56.9309 9.84C57.5043 9.53333 58.1709 9.38 58.9309 9.38C59.5443 9.38 60.1243 9.51333 60.6709 9.78C61.2309 10.0333 61.6709 10.4133 61.9909 10.92H62.0309V5.72H64.8709V20H62.1709V18.68ZM67.3175 5.72H70.4575V11.2H76.2375V5.72H79.3775V20H76.2375V13.84H70.4575V20H67.3175V5.72ZM84.3617 14.84C84.3617 15.2533 84.4017 15.66 84.4817 16.06C84.5617 16.4467 84.6951 16.8 84.8817 17.12C85.0817 17.4267 85.3417 17.6733 85.6617 17.86C85.9817 18.0467 86.3817 18.14 86.8617 18.14C87.3417 18.14 87.7417 18.0467 88.0617 17.86C88.3951 17.6733 88.6551 17.4267 88.8417 17.12C89.0417 16.8 89.1817 16.4467 89.2617 16.06C89.3417 15.66 89.3817 15.2533 89.3817 14.84C89.3817 14.4267 89.3417 14.02 89.2617 13.62C89.1817 13.22 89.0417 12.8667 88.8417 12.56C88.6551 12.2533 88.3951 12.0067 88.0617 11.82C87.7417 11.62 87.3417 11.52 86.8617 11.52C86.3817 11.52 85.9817 11.62 85.6617 11.82C85.3417 12.0067 85.0817 12.2533 84.8817 12.56C84.6951 12.8667 84.5617 13.22 84.4817 13.62C84.4017 14.02 84.3617 14.4267 84.3617 14.84ZM81.5217 14.84C81.5217 14.0133 81.6484 13.2667 81.9017 12.6C82.1551 11.92 82.5151 11.3467 82.9817 10.88C83.4484 10.4 84.0084 10.0333 84.6617 9.78C85.3151 9.51333 86.0484 9.38 86.8617 9.38C87.6751 9.38 88.4084 9.51333 89.0617 9.78C89.7284 10.0333 90.2951 10.4 90.7617 10.88C91.2284 11.3467 91.5884 11.92 91.8417 12.6C92.0951 13.2667 92.2217 14.0133 92.2217 14.84C92.2217 15.6667 92.0951 16.4133 91.8417 17.08C91.5884 17.7467 91.2284 18.32 90.7617 18.8C90.2951 19.2667 89.7284 19.6267 89.0617 19.88C88.4084 20.1333 87.6751 20.26 86.8617 20.26C86.0484 20.26 85.3151 20.1333 84.6617 19.88C84.0084 19.6267 83.4484 19.2667 82.9817 18.8C82.5151 18.32 82.1551 17.7467 81.9017 17.08C81.6484 16.4133 81.5217 15.6667 81.5217 14.84ZM103.768 20H101.068V18.56H101.008C100.648 19.16 100.182 19.5933 99.6083 19.86C99.0349 20.1267 98.4483 20.26 97.8483 20.26C97.0883 20.26 96.4616 20.16 95.9683 19.96C95.4883 19.76 95.1083 19.48 94.8283 19.12C94.5483 18.7467 94.3483 18.3 94.2283 17.78C94.1216 17.2467 94.0683 16.66 94.0683 16.02V9.66H96.9083V15.5C96.9083 16.3533 97.0416 16.9933 97.3083 17.42C97.5749 17.8333 98.0483 18.04 98.7283 18.04C99.5016 18.04 100.062 17.8133 100.408 17.36C100.755 16.8933 100.928 16.1333 100.928 15.08V9.66H103.768V20ZM108.124 16.64C108.124 16.9467 108.184 17.2133 108.304 17.44C108.437 17.6533 108.604 17.8333 108.804 17.98C109.004 18.1133 109.23 18.2133 109.484 18.28C109.75 18.3467 110.024 18.38 110.304 18.38C110.504 18.38 110.71 18.36 110.924 18.32C111.15 18.2667 111.35 18.1933 111.524 18.1C111.71 17.9933 111.864 17.86 111.984 17.7C112.104 17.5267 112.164 17.3133 112.164 17.06C112.164 16.6333 111.877 16.3133 111.304 16.1C110.744 15.8867 109.957 15.6733 108.944 15.46C108.53 15.3667 108.124 15.26 107.724 15.14C107.337 15.0067 106.99 14.84 106.684 14.64C106.377 14.4267 106.13 14.1667 105.944 13.86C105.757 13.54 105.664 13.1533 105.664 12.7C105.664 12.0333 105.79 11.4867 106.044 11.06C106.31 10.6333 106.657 10.3 107.084 10.06C107.51 9.80667 107.99 9.63333 108.524 9.54C109.057 9.43333 109.604 9.38 110.164 9.38C110.724 9.38 111.264 9.43333 111.784 9.54C112.317 9.64667 112.79 9.82667 113.204 10.08C113.617 10.3333 113.957 10.6733 114.224 11.1C114.504 11.5133 114.67 12.04 114.724 12.68H112.024C111.984 12.1333 111.777 11.7667 111.404 11.58C111.03 11.38 110.59 11.28 110.084 11.28C109.924 11.28 109.75 11.2933 109.564 11.32C109.377 11.3333 109.204 11.3733 109.044 11.44C108.897 11.5067 108.77 11.6067 108.664 11.74C108.557 11.86 108.504 12.0267 108.504 12.24C108.504 12.4933 108.597 12.7 108.784 12.86C108.97 13.02 109.21 13.1533 109.504 13.26C109.81 13.3533 110.157 13.44 110.544 13.52C110.93 13.6 111.324 13.6867 111.724 13.78C112.137 13.8733 112.537 13.9867 112.924 14.12C113.324 14.2533 113.677 14.4333 113.984 14.66C114.29 14.8733 114.537 15.1467 114.724 15.48C114.91 15.8 115.004 16.2 115.004 16.68C115.004 17.36 114.864 17.9333 114.584 18.4C114.317 18.8533 113.964 19.22 113.524 19.5C113.084 19.78 112.577 19.9733 112.004 20.08C111.444 20.2 110.87 20.26 110.284 20.26C109.684 20.26 109.097 20.2 108.524 20.08C107.95 19.96 107.437 19.76 106.984 19.48C106.544 19.2 106.177 18.8333 105.884 18.38C105.604 17.9133 105.45 17.3333 105.424 16.64H108.124ZM123.626 13.72C123.493 13 123.253 12.4533 122.906 12.08C122.573 11.7067 122.059 11.52 121.366 11.52C120.913 11.52 120.533 11.6 120.226 11.76C119.933 11.9067 119.693 12.0933 119.506 12.32C119.333 12.5467 119.206 12.7867 119.126 13.04C119.059 13.2933 119.019 13.52 119.006 13.72H123.626ZM119.006 15.52C119.046 16.44 119.279 17.1067 119.706 17.52C120.133 17.9333 120.746 18.14 121.546 18.14C122.119 18.14 122.613 18 123.026 17.72C123.439 17.4267 123.693 17.12 123.786 16.8H126.286C125.886 18.04 125.273 18.9267 124.446 19.46C123.619 19.9933 122.619 20.26 121.446 20.26C120.633 20.26 119.899 20.1333 119.246 19.88C118.593 19.6133 118.039 19.24 117.586 18.76C117.133 18.28 116.779 17.7067 116.526 17.04C116.286 16.3733 116.166 15.64 116.166 14.84C116.166 14.0667 116.293 13.3467 116.546 12.68C116.799 12.0133 117.159 11.44 117.626 10.96C118.093 10.4667 118.646 10.08 119.286 9.8C119.939 9.52 120.659 9.38 121.446 9.38C122.326 9.38 123.093 9.55333 123.746 9.9C124.399 10.2333 124.933 10.6867 125.346 11.26C125.773 11.8333 126.079 12.4867 126.266 13.22C126.453 13.9533 126.519 14.72 126.466 15.52H119.006Z" fill="#3F6A11"/>
<defs>
<clipPath id="clip0_508_2249">
<rect width="24" height="24" fill="white" transform="translate(2)"/>
</clipPath>
</defs>
</svg>

<svg xmlns="http://www.w3.org/2000/svg" width="130" height="24" fill="none"><g clip-path="url(#a)"><mask id="b" width="24" height="24" x="2" y="0" maskUnits="userSpaceOnUse" style="mask-type:luminance"><path fill="#fff" d="M2 0h24v24H2V0Z"/><path fill="#000" fill-rule="evenodd" d="M17.95 3.74c-1.993.982-3.027 2.362-3.027 4.112 0 1.68.957 2.816 2.77 3.351v1.72a.462.462 0 0 0 .922 0v-8.77a.46.46 0 0 0-.664-.414Zm-2.104 4.112c0-1.17.6-2.136 1.846-2.915v5.298c-1.259-.44-1.846-1.22-1.846-2.383Z" clip-rule="evenodd"/><path fill="#000" fill-rule="evenodd" d="M16.77 14.308v4.615a1.385 1.385 0 0 0 2.768 0v-4.615a1.385 1.385 0 0 0-2.769 0Zm1.384 5.077a.462.462 0 0 1-.462-.462v-4.615a.461.461 0 1 1 .923 0v4.615a.462.462 0 0 1-.461.462Z" clip-rule="evenodd"/><path fill="#000" d="M8.953 5.054a.462.462 0 0 1 .923.046c-.078 1.543.003 2.594.219 3.114.168.408.502.586 1.11.552a.461.461 0 0 1 .053.92c-.977.056-1.686-.321-2.016-1.117-.284-.683-.372-1.843-.29-3.515Z"/><path fill="#000" d="M13.508 5.054a.46.46 0 1 0-.921.046c.076 1.543-.004 2.594-.22 3.114-.169.409-.502.586-1.11.552a.462.462 0 0 0-.053.92c.977.056 1.685-.321 2.016-1.117.283-.683.372-1.843.288-3.515Z"/><path fill="#000" d="M10.77 5.077a.461.461 0 1 1 .922 0v8.308a.462.462 0 0 1-.923 0V5.077Z"/><path fill="#000" fill-rule="evenodd" d="M9.846 14.308v4.615a1.385 1.385 0 0 0 2.77 0v-4.615a1.385 1.385 0 0 0-2.77 0Zm1.385 5.077a.462.462 0 0 1-.462-.462v-4.615a.461.461 0 1 1 .923 0v4.615a.462.462 0 0 1-.461.462Z" clip-rule="evenodd"/></mask><g mask="url(#b)"><path fill="#3F6A11" d="M14 24c6.627 0 12-5.373 12-12S20.627 0 14 0 2 5.373 2 12s5.373 12 12 12Z"/></g></g><path fill="#3F6A11" d="M31.38 5.72h10.04v2.64h-6.9v3.3h5.98v2.44h-5.98V20h-3.14V5.72ZM52.636 20h-2.7v-1.44h-.06c-.36.6-.827 1.033-1.4 1.3-.574.267-1.16.4-1.76.4-.76 0-1.387-.1-1.88-.3-.48-.2-.86-.48-1.14-.84-.28-.373-.48-.82-.6-1.34a8.987 8.987 0 0 1-.16-1.76V9.66h2.84v5.84c0 .853.133 1.493.4 1.92.266.413.74.62 1.42.62.773 0 1.333-.227 1.68-.68.346-.467.52-1.227.52-2.28V9.66h2.84V20Zm9.495-5.2c0-.427-.04-.833-.12-1.22-.08-.4-.22-.747-.42-1.04a2.182 2.182 0 0 0-.74-.74c-.307-.187-.693-.28-1.16-.28-.467 0-.86.093-1.18.28-.32.187-.58.433-.78.74a3.6 3.6 0 0 0-.42 1.06 6.01 6.01 0 0 0-.12 1.22c0 .4.047.8.14 1.2.093.4.24.76.44 1.08.213.307.473.56.78.76.32.187.7.28 1.14.28.467 0 .853-.093 1.16-.28.32-.187.573-.433.76-.74.187-.32.32-.68.4-1.08.08-.4.12-.813.12-1.24Zm.04 3.88h-.04c-.333.56-.773.967-1.32 1.22-.533.24-1.14.36-1.82.36-.773 0-1.453-.147-2.04-.44a4.337 4.337 0 0 1-1.46-1.22 5.963 5.963 0 0 1-.86-1.78 7.68 7.68 0 0 1-.28-2.08c0-.693.093-1.36.28-2a5.48 5.48 0 0 1 .86-1.72 4.283 4.283 0 0 1 1.44-1.18c.573-.307 1.24-.46 2-.46.613 0 1.193.133 1.74.4.56.253 1 .633 1.32 1.14h.04v-5.2h2.84V20h-2.7v-1.32Zm5.146-12.96h3.14v5.48h5.78V5.72h3.14V20h-3.14v-6.16h-5.78V20h-3.14V5.72Zm17.045 9.12c0 .413.04.82.12 1.22.08.387.213.74.4 1.06.2.307.46.553.78.74.32.187.72.28 1.2.28s.88-.093 1.2-.28c.333-.187.593-.433.78-.74.2-.32.34-.673.42-1.06a6.206 6.206 0 0 0 0-2.44c-.08-.4-.22-.753-.42-1.06a2.083 2.083 0 0 0-.78-.74c-.32-.2-.72-.3-1.2-.3s-.88.1-1.2.3c-.32.187-.58.433-.78.74-.187.307-.32.66-.4 1.06-.08.4-.12.807-.12 1.22Zm-2.84 0c0-.827.126-1.573.38-2.24a4.73 4.73 0 0 1 2.76-2.82c.653-.267 1.386-.4 2.2-.4.813 0 1.546.133 2.2.4.666.253 1.233.62 1.7 1.1.466.467.826 1.04 1.08 1.72.253.667.38 1.413.38 2.24 0 .827-.127 1.573-.38 2.24a4.962 4.962 0 0 1-1.08 1.72 4.756 4.756 0 0 1-1.7 1.08c-.654.253-1.387.38-2.2.38-.814 0-1.547-.127-2.2-.38a4.793 4.793 0 0 1-1.68-1.08 4.964 4.964 0 0 1-1.08-1.72c-.254-.667-.38-1.413-.38-2.24ZM103.768 20h-2.7v-1.44h-.06c-.36.6-.826 1.033-1.4 1.3-.573.267-1.16.4-1.76.4-.76 0-1.386-.1-1.88-.3-.48-.2-.86-.48-1.14-.84-.28-.373-.48-.82-.6-1.34a8.987 8.987 0 0 1-.16-1.76V9.66h2.84v5.84c0 .853.134 1.493.4 1.92.267.413.74.62 1.42.62.774 0 1.334-.227 1.68-.68.347-.467.52-1.227.52-2.28V9.66h2.84V20Zm4.356-3.36c0 .307.06.573.18.8.133.213.3.393.5.54.2.133.426.233.68.3a3.362 3.362 0 0 0 1.44.04c.226-.053.426-.127.6-.22.186-.107.34-.24.46-.4.12-.173.18-.387.18-.64 0-.427-.287-.747-.86-.96-.56-.213-1.347-.427-2.36-.64-.414-.093-.82-.2-1.22-.32a4.676 4.676 0 0 1-1.04-.5 2.562 2.562 0 0 1-.74-.78c-.187-.32-.28-.707-.28-1.16 0-.667.126-1.213.38-1.64.266-.427.613-.76 1.04-1a4.207 4.207 0 0 1 1.44-.52 8.34 8.34 0 0 1 1.64-.16c.56 0 1.1.053 1.62.16a4.319 4.319 0 0 1 1.42.54c.413.253.753.593 1.02 1.02.28.413.446.94.5 1.58h-2.7c-.04-.547-.247-.913-.62-1.1-.374-.2-.814-.3-1.32-.3-.16 0-.334.013-.52.04-.187.013-.36.053-.52.12a1.02 1.02 0 0 0-.38.3c-.107.12-.16.287-.16.5 0 .253.093.46.28.62.186.16.426.293.72.4.306.093.653.18 1.04.26.386.08.78.167 1.18.26.413.093.813.207 1.2.34.4.133.753.313 1.06.54.306.213.553.487.74.82.186.32.28.72.28 1.2 0 .68-.14 1.253-.42 1.72-.267.453-.62.82-1.06 1.1a4.25 4.25 0 0 1-1.52.58 8.19 8.19 0 0 1-1.72.18c-.6 0-1.187-.06-1.76-.18a4.75 4.75 0 0 1-1.54-.6 3.604 3.604 0 0 1-1.1-1.1c-.28-.467-.434-1.047-.46-1.74h2.7Zm15.502-2.92c-.133-.72-.373-1.267-.72-1.64-.333-.373-.847-.56-1.54-.56-.453 0-.833.08-1.14.24a2.185 2.185 0 0 0-.72.56 2.35 2.35 0 0 0-.38.72c-.067.253-.107.48-.12.68h4.62Zm-4.62 1.8c.04.92.273 1.587.7 2 .427.413 1.04.62 1.84.62.573 0 1.067-.14 1.48-.42.413-.293.667-.6.76-.92h2.5c-.4 1.24-1.013 2.127-1.84 2.66-.827.533-1.827.8-3 .8-.813 0-1.547-.127-2.2-.38a4.683 4.683 0 0 1-1.66-1.12 5.121 5.121 0 0 1-1.06-1.72c-.24-.667-.36-1.4-.36-2.2 0-.773.127-1.493.38-2.16a4.953 4.953 0 0 1 1.08-1.72 5.042 5.042 0 0 1 1.66-1.16 5.425 5.425 0 0 1 2.16-.42c.88 0 1.647.173 2.3.52a4.408 4.408 0 0 1 1.6 1.36 5.53 5.53 0 0 1 .92 1.96 7.3 7.3 0 0 1 .2 2.3h-7.46Z"/><defs><clipPath id="a"><path fill="#fff" d="M2 0h24v24H2z"/></clipPath></defs></svg>
